alpha-p.svg

<svg fill="currentColor" viewBox="0 0 24 24"><path d="M9 7v10h2v-4h2a2 2 0 0 0 2-2V9a2 2 0 0 0-2-2zm2 2h2v2h-2z"/></svg>

<svg  viewBox="0 0 24 24" fill="currentColor"><path  d="M9,7V17H11V13H13A2,2 0 0,0 15,11V9A2,2 0 0,0 13,7H9M11,9H13V11H11V9Z"/></svg>
